X:1
T:6 Gesänge, Op. 6
T:Die Liebe hat gelogen!
T:4. Die Liebe hat gelogen! Love has promised falsely! 
T:Robert Franz
T:6 Gesänge, Op. 6
T:Wilhelm Osterwald (trans. Diana Udevak Ashton) 
T:OpenScore (CC0)
T:OpenScore (CC0)
C:Robert Franz
Z:Wilhelm Osterwald
Z:OpenScore (CC0)
%%score 1 { ( 2 5 ) | ( 3 4 ) }
L:1/8
Q:1/4=144
M:4/4
K:Db
V:1 treble nm="Singstimme\nVoice"
V:2 treble nm="Pianoforte"
V:5 treble 
V:3 bass 
V:4 bass 
V:1
"^Allegro agitato e molto appassionato" z8 | z8 | z8 | z4 z2!mf! F2 | =E2 F2 G2 F2 | %5
w: |||Des|Wal- des Wip- fel|
w: |||The|fo- rest trees are|
!>(! d4!>)! c2 B2 |!<(! =A2 c2 e2 g2!<)! |!>(! f4!>)! z2 F2 | =E2 F2 G2 F!<(! F!<)! | %9
w: rau- schen un-|heim- lich hin und|her, die|Vög- lein schwei- gen und|
w: wav- ing their|bran- ches in the|air, the|birds sit si- lent- ly|
!>(! d4!>)! c2 B2 |"^poco riten."[Q:1/4=130]"^T" =g2 f2 =e2 f2 | c4 z4[Q:1/4=144]"_a tempo" | z8 | %13
w: lau- schen, singt|kei- nes, kei- nes|mehr.||
w: list'- ning, their|song is heard no|more.||
 z8 | z8 | z4 z2 F2 | A2 _c2 B2 A2 | G4 F2 E2 | %18
w: ||Was|wölbst du noch die|Bo- gen, du|
w: ||Can'st|thou still span the|hea- vens,  thou|
"^poco riten."[Q:1/4=140]"^T" !>!.f2[Q:1/4=135]"^T\n" .e2[Q:1/4=130]"^T" .=d2 .e2 | %19
w: stol- zes A- bend-|
w: gor- geous sun- set|
[Q:1/4=144]"^a tempo" B4 z2 B2 | =A2 c2 e2 g2 |!>(! f4 c2 e2!>)! | %22
w: roth? die|Lie- be hat ge-|lo- gen, die|
w: red? Know,|Love has pro- mis'd|false- ly, fi-|
[Q:1/4=134]"^T""^rallent." d2 c2 B2[Q:1/4=124]"^T" _A2 |[Q:1/4=114]"^T" G4 z2 G2 | %24
w: Treu'  ist todt, ist|todt, ist|
w: del- i- ty is|dead, is|
!<(! F4-!<)!!>(! F2!>)! z2 | z8 |[Q:1/4=144]"_a tempo" z8 | z8 | z8 | z4 z2!mf! F2 | =E2 F2 G2 F2 | %31
w: todt! *|||||Die|klei- nen Blu- men|
w: dead! *|||||The|ti- ny flow'rs are|
!>(! d4!>)! c2 B2 | =A2 c2 e2 g2 |!>(! f4!>)! z2 F2 | =E2 F2 G2 F2 | d4 c2 B2 | %36
w: sen- ken weh-|mü- thig- lich das|Haupt, wenn|sie des Tags ge-|den- ken, der|
w: sink- ing their|heads in pen- sive|rest, when|of that day they're|think- ing, that|
"^poco rit."[Q:1/4=124]"^T" =g2 f2 =e2 f2 | c4 z4[Q:1/4=144]"_a" |[Q:1/4=144]"_tempo" z8 | z8 | %40
w: Al- les mir ge-|raubt.|||
w: stole my hap- pi-|ness.|||
 z8 | z4 z2!mf! F2 | A2 _c2 B2 A2 | G4 F2 E2 |"^poco riten."[Q:1/4=124]"^T" f2 e2 =d2 e2 | %45
w: |Wie|blei- che Blit- ze|zie- hen mir|Schmer- zen durch den|
w: |Like|light- ning's burn- ing|ar- rows,  shoots|an- guish  through my|
[Q:1/4=144]"^a tempo"[Q:1/4=144]"_a tempo" B4 z2 B2 | =A2 c2 e2 g2 |!>(! f4!>)! c2 e2 | %48
w: Sinn; ich|möch- te flie- hen,|flie- hen, und|
w: brain; I|fain would flee my|sor- rows,  but|
!f! (3(d4 e4) f4 | g4 z2 B2 |!>(! d4- d2!>)! z2 | z8 | z8 | z8 | z8 | z8 | z8 | z8 | z8 |] %59
w: weiss * doch|nicht wo-|hin? *|||||||||
w: re- * fuge|seek in|vain? *|||||||||
V:2
 z [B,D=E]2 [B,DF]2 [B,DG]2 [B,DF] | !>![_EF]8 | z [B,D=E]2 [B,DF]2 [B,DG]2 [B,DF] | !>![_EF]8 | %4
!mf! z ([B,D=E]2 [B,DF]2 [B,DG]2 [B,DF] |!>(! d4!>)! c2) B2 | z!<(! =A2 c2 e2!<)! g | !>![ef]8 | %8
 z ([B,D=E]2 [B,DF]2 [B,DG]2 [B,DF] | d4 c2 B2) | %10
"^poco riten."!mf! (.[F=G]2 .[FG]2 .[FG]2 .[FG]2) | [FA]4- [FA]2 z!mf! [FA] | %12
 z [FA]2 [FA]2 [FA]2 [FA] |!>(! [cf]4- [cf]2!>)! z2 | !>![Bc]8 | !>![_EF]8 | %16
[I:staff +1] !>![_A,B,]8 |[I:staff -1] z[I:staff +1] (E,2 G,2 B,2[I:staff -1] E) | %18
"^poco riten." (.[EF]2 .[EF]2 .[EF]2 .[EF]2) |!f! !>![GB]8 |!<(! z =A2 c2 e2!<)! g | !>![ef]8 | %22
 z d2 c2 B2 _A | !>!G8 |!>(! [CEF]8- | [CEF]4!>)! z4 | z [B,D=E]2 [B,DF]2 [B,DG]2 [B,DF] | %27
 !>![_EF]8 | z [B,D=E]2 [B,DF]2 [B,DG]2 [B,DF] | !>![_EF]8 | %30
!mf! z ([B,D=E]2 [B,DF]2 [B,DG]2 [B,DF] | (d4 c2)) B2 | z!<(! =A2 c2 e2!<)! g | !>![ef]8 | %34
 z ([B,D=E]2 [B,DF]2 [B,DG]2 [B,DF] | d4 c2 B2) |"^poco rit." (.[F=G]2 .[FG]2 .[FG]2 .[FG]2) | %37
 [FA]4- [FA]2 z!mf! [FA] | z [FA]2 [FA]2 [FA]2 [FA] | [cf]4- [cf]2 z2 | !>![Bc]8 | !>![_EF]8 | %42
[I:staff +1] !>![_A,B,]8 |[I:staff -1] z[I:staff +1] (E,2 G,2 B,2[I:staff -1] E) | %44
"^poco riten." (.[EF]2 .[EF]2 .[EF]2 .[EF]2) | !>![GB]8 |!<(! z =A2 c2!<)! e2 g | !>![ef]8 | %48
!f! (3:2:2!>![DFd]8 !>![CFc]4 | !>![B,GB]8 | z [B,D=E]2 [B,DF]2 [B,DG]2 [B,DF] | !>![_EF]8 | %52
 z [B,D=E]2 [B,DF]2 [B,DG]2 [B,DF] | !>![_EF]8 |"_dimin." z D2 C2 B,2!p! _A,- | %55
!>(! A,[I:staff +1] G,2 F,2 E,2 G,-!>)! |!pp! G, F,2 E,2 D,2 C, |[I:staff -1] x8 | x8 |] %59
V:3
!f!!ped! !>!=E,2 F,2 G,2 F,2!ped-up! |!ped! !>![_E,F,]8!ped-up! | %2
!ped! !>!=E,2 F,2 G,2 F,2!ped-up! |!ped! !>![_E,F,]8!ped-up! |!ped! !>!=E,2 F,2 G,2 F,2!ped-up! | %5
!ped! (D4 C2) B,2!ped-up! |!ped! =A,2 C2 E2 G2!ped-up! |!ped! !>![EF]8!ped-up! | %8
!ped! !>!=E,2 F,2 G,2 F,2!ped-up! | (B,4 C2 D2) | %10
!ped! (.[D,B,]2 .[D,B,]2 .[D,B,]2 .[D,B,]2)!ped-up! | [C,C]4- [C,C]2 (C2 | =B,2 C2 D2 C2 | %13
[K:treble]!ped! A4- A2)!ped-up! z2 |[K:bass]!ped! !>![B,C]8!ped-up! |!ped! !>![_E,F,]8!ped-up! | %16
!ped! !>![_A,,B,,]8!ped-up! |!ped! E,,2 G,,2 B,,2 E,2!ped-up! | %18
 (.[_C,A,]2 .[C,A,]2 .[C,A,]2 .[C,A,]2) | !>![E,B,]8 | =A,,2 C,2 E,2 G,2 | !>![E,F,]8 | %22
"^rallent." (D,2 C,2 B,,2 _A,,2 | !>!G,,8 | [=A,,,=F,,]8-) | [A,,,F,,]4 z4 |!f! =E,2 F,2 G,2 F,2 | %27
 !>![_E,F,]8 | !>!=E,2 F,2 G,2 F,2 | !>![_E,F,]8 | !>!=E,2 F,2 G,2 F,2 | %31
!<(! (D4!<)!!>(! C2)!>)! B,2 | =A,2 C2 E2 G2 | !>![EF]8 | !>!=E,2 F,2 G,2 F,2 | (B,4 C2 D2) | %36
 (.[D,B,]2 .[D,B,]2 .[D,B,]2 .[D,B,]2) | [C,C]4- [C,C]2 C2 | (=B,2 C2 D2 C2 | %39
[K:treble]!ped! A4-) A2!ped-up! z2 |[K:bass] !>![B,C]8 | !>![_E,F,]8 | [_A,,B,,]8 | %43
 E,,2 A,,2 B,,2 E,2 | (.[_C,A,]2 .[C,A,]2 .[C,A,]2 .[C,A,]2) | !>![E,B,]8 | =A,,2 C,2 E,2 G,2 | %47
 !>![E,F,]8 | (3:2:2[B,,B,]8 [_A,,_A,]4 | [G,,G,]8 |!f! !>!=E,2 F,2 G,2 F,2 | !>![_E,F,]8 | %52
 !>!=E,2 F,2 G,2 F,2 | !>![_E,F,]8 | D,2 C,2 B,,2 _A,,2 | G,,2 F,,2 E,,2 G,,2 | %56
 F,,2 E,,2 D,,2 C,,2 | [B,,,B,,]8- | B,,4 z4 |] %59
V:4
 B,,8 | x2 C,2 =A,,2 F,,2 | B,,8 | x2 C,2 =A,,2 F,,2 | B,,8 | B,,4- B,,2 z2 | x8 | x2 C2 =A,2 F,2 | %8
 B,,8 | x8 | x8 | x8 | x8 |[K:treble] x8 |[K:bass] x2 =G,2 =E,2 C,2 | x2 C,2 =A,,2 F,,2 | %16
 x2 F,,2 =D,,2 B,,,2 | x8 | x8 | x2"^a tempo" E,,2 G,,2 B,,2 | x8 | x2 C,2 =A,,2 F,,2 | x8 | %23
 x2 E,,2 C,,2 B,,,2 | x8 | x8 | B,,8 | x2 C,2 =A,,2 F,,2 | B,,8 | x2 C,2 =A,,2 F,,2 | B,,8 | %31
 B,,4- B,,2 z2 | x8 | x2 C2 =A,2 F,2 | B,,8 | x8 | x8 | x8 | x8 |[K:treble] x8 | %40
[K:bass] x2 =G,2 =E,2 C,2 | x2 C,2 =A,,2 F,,2 | x2 F,,2 =D,,2 B,,,2 | x8 | x8 | x2 E,,2 G,,2 B,,2 | %46
 x8 | x2 C,2 =A,,2 F,,2 | x8 | x8 | F,,8 | x2 C,2 =A,,2 F,,2 | F,,8 | x2 C,2 =A,,2 F,,2 | x8 | x8 | %56
 x8 | x8 | B,,,4 z4 |] %59
V:5
 x8 | z [EF]2 C2[I:staff +1] =A,2 F, | x8 |[I:staff -1] z [EF]2 C2[I:staff +1] =A,2 F, | x8 | %5
[I:staff -1] [_EG]4- [EG]2 z2 | x8 | z!>(! [ef]2 c2 =A2 F!>)! | x8 | %9
 z!>(! [F=G]2 [FG]2 [FG]2 [FG]!>)! | x8 | x8 | x8 | x8 | z [Bc]2 =G2 =E2 C | %15
 z [EF]2 C2[I:staff +1] =A,2 F, |[I:staff -1] z[I:staff +1] [A,B,]2 F,2 =D,2 B,, | x8 | x8 | %19
[I:staff -1] z [GB]2 E2 G2 B | x8 | z!>(! [ef]2 c2 =A2 F!>)! | x8 | z G2 E2 C2 B, | x8 | x8 | x8 | %27
 z [EF]2 C2[I:staff +1] =A,2 F, | x8 |[I:staff -1] z [EF]2 C2[I:staff +1] =A,2 F, | x8 | %31
[I:staff -1] [_EG]4- [EG]2 z2 | x8 | z!>(! [ef]2 c2 =A2!>)! F | x8 | z [F=G]2 [FG]2 [FG]2 [FG] | %36
 x8 | x8 | x8 | x8 | z [Bc]2 =G2 =E2 C | z [EF]2 C2[I:staff +1] =A,2 F, | %42
[I:staff -1] z[I:staff +1] [A,B,]2 F,2 =D,2 B,, | x8 | x8 |[I:staff -1] z [GB]2 E2 G2 B | x8 | %47
 z!>(! [ef]2 c2 =A2 F!>)! | x8 | x8 | x8 | z [EF]2 C2[I:staff +1] =A,2 F, | x8 | %53
[I:staff -1] z [EF]2 C2[I:staff +1] =A,2 F, | x8 | x8 | x8 | x8 | x8 |] %59

